X:1
T:Marquise
T: 
T:à Melle LUCY-STEEL
T:Maxime Alkan [1818 - 1891]
T:Marquise
T:Edition Pannenberg
T:Edition Pannenberg
T:Edition Pannenberg
C:Maxime Alkan
Z:Edition Pannenberg
%%score { 1 | 2 }
L:1/8
Q:1/4=120
M:3/4
K:G
V:1 treble nm="Piano" snm="Pno."
V:2 bass 
V:1
!p!"^Animato Moderato"{de} d^c>(d |!ped! =c>)(d !>!f3) (d!ped-up! |!ped! B>)(d !>!g3) (d!ped-up! | %3
!ped! c>)(d b>)(d a>)(d!ped-up! |!ped! B>)(d a>)(d g>)(d!ped-up! |!ped! c>)(d !>!f3) (d!ped-up! | %6
!ped! B>)(d !>!g3) (d!ped-up! |!ped! c'>)(d b>)(d a>)(d!ped-up! |!ped! g2) z!ped-up! :: %9
!f! z/{ab} a<^g(a/ |!p!!ped! =c>)(d (!>!f3) (d)!ped-up! |!ped! B>)(d !>!g3) (d!ped-up! | %12
!ped! c>)(d b>)(d a>)(d!ped-up! |!ped! B>)(d a>)(d g>)(d!ped-up! |!ped! c>)(d (!>!f3) (d)!ped-up! | %15
!ped! B>)(d !>!g3) (d!ped-up! |!ped! c'>)(d b>)(d a>)(d!ped-up! |!ped! g2)!ped-up! z2 z2 :| %18
!ped! e>c' d>b c>a | [Bg] z [Bdg]2!ped-up! z2 ||[K:C][M:3/4]"^TRIO"!p!!ped! (3(gag) .e.g.^f.a | %21
 (3(gag) .e.g.^f.a | (3(gag) .e.g.c'.e'!ped-up! |!ped! (e'd'){/e'} .d'.^c' .d'2 | %24
 (3(fgf) .d.f.e.g | (3(fgf) .d.f.e.g | (3(fgf) .d.f.g.b!ped-up! | (d'c'){/d'} (c'b) c' z | %28
!ped! (3(gag) .e.g.^f.a | (3(gag) .e.g.^f.a | (3(gag) .e.g.c'.e'!ped-up! | %31
 (e'd'){/e'} .d'.^c' .d'2 |!8va(! z{a'b'} (a'^g'a'b'a') | .=g'.e''.d''.c''.b'.a' | %34
 .g'.^g'.b'.a'.f'.d' | .c' z .[e'g'c''] z!8va)! z2 |:[K:G]!f! [db] z [ec'] z [db] z | %37
{/b} [ca]>^g [ca]4 |!p! .[FA].[GB].[Ac].[Bd].[df].[ce] | ([ce][Bd]){/e} ([Bd][^^A^c]) [Bd]2 | %40
!f! .[db] z{/d'} .[ec'] z .[db] z |{/b} [ca]>(^g .[ca]) z!p! .[Af].[Bg] | %42
!<(! .[ca].[db].[ec'].[fd'].[ge'].[af']!<)! |!>(! .[bg'].[ad'].[gb].[da].[Bg]!>)! z | %44
!f! [db] z [ec'] z [db] z |{/b} [ca]>^g [ca]4 |!p! .[FA].[GB].[Ac].[Bd].[df].[ce] | %47
 ([ce][Bd]){/e} ([Bd][^^A^c]) [Bd]2 |!f! [db]2{/[=fd']} [ec']2 [db]2 | %49
 .[ca] z!8va(! .[e'c''].[d'b'].[c'a'].[bg'] | .[af'].[ge'].[fd'].[ec'].[db].[ca] | %51
 [Bg]!8va)! [GB][Ac][Bd][ce][d=f] ||[K:C]!p!!ped! (3([eg]ag) .e.g.^f.a | (3(gag) .e.g.^f.a | %54
 (3(gag) .e.g.c'.e'!ped-up! |!ped! (e'd'){/e'} .d'.^c' .d'2 | (3(fgf) .d.f.e.g | (3(fgf) .d.f.e.g | %58
 (3(gag) .d.f.g.b!ped-up! | (d'c'){/d'} (c'b) c' z |!ped! (3(gag) .e.g.^f.a | (3(gag) .e.g.^f.a | %62
 (3(gag) .e.g.c'.e'!ped-up! | (e'd'){/e'} .d'.^c' .d'2 |!f!!8va(! z{a'b'} (a'^g'a'b'a') | %65
 =g'e''d''c''b'a' | g'^g'b'a'f'd' | c'2 [e'c''] z!8va)! z2 |:[K:G][M:3/4]!p!"^CODA" (d^c>)(d | %69
!ped! =c>)d (!>!f3 (d)!ped-up! |!ped! B>)(d !>!g3) (d!ped-up! |!ped! c>)(d b>)(d a>)(d!ped-up! | %72
!ped! B>)(d a>)(d g>)(d!ped-up! |!ped! c>)(d !>!f3) (d!ped-up! |!ped! B>)(d !>!g3) (d!ped-up! | %75
!ped! c'>)(d b>)(d a>)(d!ped-up! |!ped! g2)!ped-up! z2 z2 :|2!f! e>c' d>b d>a | g>d ^c>d f>d || %79
 g>d ^c>d f>d |!ped! g z z2 z3/2 [Bdg]/ | [Bdg]2 [Bdg]2 [Bdg]2 | [Bdg]2 z2 z3/2 [dgb]/ | %83
 [dgb]2 z2 z3/2 [B,DG]/ | [B,DG]6- | [B,DG]2 z2 z2!ped-up! |] %86
V:2
 z2 z | [D,,D,]2 [D,A,C]2 [D,A,C]2 | [G,,G,]2 [D,G,B,]2 [D,G,B,]2 | [D,,D,]2 [D,F,C]2 [D,F,C]2 | %4
 [G,,G,]2 [D,G,B,]2 [D,G,B,]2 | [D,,D,]2 [D,A,C]2 [D,A,C]2 | [G,,G,]2 [D,G,B,]2 [D,G,B,]2 | %7
 [D,,D,]2 (!>!D,2 [F,C]2) | [G,B,]2 [G,,G,] :: z2 z | [D,,D,]2 [D,A,C]2 [D,A,C]2 | %11
 [G,,G,]2 [D,G,B,]2 [D,G,B,]2 | [D,,D,]2 [D,F,C]2 [D,F,C]2 | [G,,G,]2 [D,G,B,]2 [D,G,B,]2 | %14
 [D,,D,]2 [D,A,C]2 [D,A,C]2 | [G,,G,]2 [D,G,B,]2 [D,G,B,]2 | [D,,D,]2 (!>!D,2 [F,C]2) | %17
 [G,B,]2 [G,,G,] z z2 :| [C,E,A,]2 [D,G,B,]2 [D,F,C]2 | [G,B,] z [G,,G,]2 z2 || %20
[K:C][M:3/4] [C,C]2 !>![G,CE]2 [A,C^D]2 | [C,C]2 !>![G,CE]2 [A,C^D]2 | [C,C]2 [G,CE]2 [G,CE]2 | %23
 [G,,G,]2 [G,B,F]2 [G,B,F]2 | [G,,G,]2 !>![G,B,D]2 [G,^A,^C]2 | [G,,G,]2 !>![G,B,D]2 [G,^A,^C]2 | %26
 [G,,G,]2 (!>!G,2 [DF]2) | [C,C]2 [G,CE]2 [G,CE]2 | [C,C]2 !>![G,CE]2 [A,C^D]2 | %29
 [C,C]2 !>![G,CE]2 [A,C^D]2 | [C,C]2 [G,CE]2 [G,CE]2 | F,2 [A,D]2 [A,D]2 | %32
 ^F,2 [A,=C^D]2 [A,=CD]2 | G,2 [CE]2 [CE]2 | [G,,G,]2 (G,2 [B,F]2) | .[CE] z .[C,,C,] z z2 |: %36
[K:G] z2 [D,G,B,]2 [D,G,B,]2 | [D,,D,]2 [D,F,C]2 [D,F,C]2 | [D,,D,]2 [D,A,C]2 [D,A,C]2 | %39
 [G,,G,]2 [D,G,B,]2 [D,G,B,]2 | [G,,G,]2 [D,G,B,]2 [D,G,B,]2 | [C,,C,]2 [C,E,A,]2 [C,E,A,]2 | %42
 [D,,D,]2 [D,A,C]2 [D,A,C]2 | [G,,,G,,]2 [D,G,B,]2 [D,G,B,]2 | [G,,G,]2 [D,G,B,]2 [D,G,B,]2 | %45
 [D,,D,]2 [D,F,C]2 [D,F,C]2 | [D,,D,]2 [D,A,C]2 [D,A,C]2 | [G,,G,]2 [D,G,B,]2 [D,G,B,]2 | %48
 [E,,E,]2 [E,^G,D]2 [E,G,D]2 | [A,,A,]2 [E,A,C]2 [E,A,C]2 | [D,,D,]2 D,2 [F,C]2 | [G,B,] G^F=FED || %52
[K:C] [C,C]2 !>![G,CE]2 [A,C^D]2 | [C,C]2 !>![G,CE]2 [A,C^D]2 | [C,C]2 [G,CE]2 [G,CE]2 | %55
 [G,,G,]2 [G,B,F]2 [G,B,F]2 | [G,,G,]2 !>![G,B,D]2 [G,^A,^C]2 | [G,,G,]2 !>![G,B,D]2 [G,^A,^C]2 | %58
 [G,,G,]2 (!>!G,2 [DF]2) | [C,C]2 [G,CE]2 [G,CE]2 | [C,C]2 (!>![G,CE]2 [A,C^D]2) | %61
 [C,E]2 (!>![G,CE]2 [A,C^D]2) | [C,C]2 [G,CE]2 [G,CE]2 | F,2 [A,D]2 [A,D]2 | %64
 ^F,2 [A,=C^D]2 [A,=CD]2 | G,2 [CE]2 [CE]2 | [G,,G,]2 (!>!G,2 [B,F]2) | [CE]2 [C,C] z z2 |: %68
[K:G][M:3/4] z2 z | [D,,D,]2 [D,A,C]2 [D,A,C]2 | [G,,G,]2 [D,G,B,]2 [D,G,B,]2 | %71
 [D,,D,]2 [D,F,C]2 [D,F,C]2 | [G,,G,]2 [D,G,B,]2 [D,G,B,]2 | [D,,D,]2 [D,A,C]2 [D,A,C]2 | %74
 [G,,G,]2 [D,G,B,]2 [D,G,B,]2 | [D,,D,]2 (!>!D,2 [F,C]2) | [G,B,]2 [G,,G,] z z2 :|2 %77
 [C,E,A,]2 [D,G,B,]2 [D,F,C]2 | [G,B,]2 z2 (!>![D,A,C]2 || [G,B,]) z z2 (!>![D,A,C]2 | %80
 [G,B,]) z z2 z2 | [G,,G,]2 [D,,D,]2 [B,,,B,,]2 | [G,,,G,,]2 z2 z3/2 z/ | [G,,G,]2 z2 z2 | %84
 [G,,,G,,]6- | [G,,,G,,]2 z2 z2 |] %86

